X:1
T:Es Ist Kein Tag, 88.84
T:Es Ist Kein Tag, 88.84
T:Johann David Meyer, 1692
T:Public Domain Courtesy of the Cyber Hymnal™
C:Johann David Meyer, 1692
Z:Public Domain
Z:Courtesy of the Cyber Hymnal™
%%score ( 1 2 ) ( 3 4 )
L:1/8
Q:1/4=110
M:4/4
K:D
V:1 treble 
V:2 treble 
V:3 bass 
V:4 bass 
V:1
 [DA]2 | [Dd]2 (cB) [DA]2 (BA) | (GF) [CE]2 D2 (FG) | [EA]2 [DA]2 [DB]2 [Ec]2 | %4
 [Dd]2 (de) [Ec]2 (dc) | [DB]2 [DA]2 [B,G]2 E2 | F3 z G [EA]2 (DE) | F4 z2 x6 | D6 |] %9
V:2
 x2 | x2 D2 x D2 x | B,2 x D2 D2 x | x8 | x2 E2 x D2 x | x6 E2 | D2 (D2 x D2) x2 | D6 (E4 C2) | %8
 D6 |] %9
V:3
 [D,F,]2 | [F,A,]2 G,2 [D,F,]2 [B,,F,]2 | [E,G,]2 [A,,A,]2 [D,F,]2 [D,A,]2 | %3
 [C,A,]2 [D,F,]2 G,2 [E,G,]2 | [F,A,]2 [^G,B,]2 A,2 [F,A,]2 | G,2 [D,F,]2 [E,G,]2 [C,A,]2 | %6
 [D,A,]2 [B,,B,]2 [A,,C]2 [B,,F,]2 x | A,6 z2 G,2 x2 | [D,F,]6 |] %9
V:4
 x2 | x2 G,2 x4 | x8 | x4 G,2 x2 | x4 A,2 x2 | G,2 x6 | x9 | F,,2 G,,2 A,,4 x4 | x6 |] %9

